icon-themes/breeze_svg/cmd/lc_presentationlayout.svg

<svg viewBox="0 0 24 24" xmlns="http://www.w3.org/2000/svg"><path d="m5 4v6h1v-1-1-3h12v3 1 5h-5v1h1 1 4v-10-1zm5 2.5v6l4-3zm-6 4.5v9h16zm1 1.800781 11.099609 6.199219h-11.099609z" fill="#4d4d4d"/></svg>

<svg xmlns="http://www.w3.org/2000/svg" viewBox="0 0 24 24">
 <path 
     style="fill:#4d4d4d" 
     d="M 5 4 L 5 10 L 6 10 L 6 9 L 6 8 L 6 5 L 18 5 L 18 8 L 18 9 L 18 14 L 13 14 L 13 15 L 14 15 L 15 15 L 19 15 L 19 5 L 19 4 L 5 4 z M 10 6.5 L 10 12.5 L 14 9.5 L 10 6.5 z M 4 11 L 4 20 L 20 20 L 4 11 z M 5 12.800781 L 16.099609 19 L 5 19 L 5 12.800781 z "
     />
 </svg>
